logos/webix.svg

<?xml version="1.0" encoding="UTF-8"?>
<svg width="512px" height="165px" viewBox="0 0 512 165" version="1.1" xmlns="http://www.w3.org/2000/svg" xmlns:xlink="http://www.w3.org/1999/xlink" preserveAspectRatio="xMidYMid">
    <defs>
        <polygon id="path-1" points="0 108.28075 0 0.527317666 49.4555966 54.5979219 99.1248526 0.527317666 148.132095 54.3176745 197.509968 0.527317666 197.509968 108.529023 148.68728 163.269614 99.1248526 109.268761 49.5624267 163.269614"></polygon>
        <linearGradient x1="12.932%" y1="9.052%" x2="71.216%" y2="81.625%" id="linearGradient-3">
            <stop stop-color="#67337A" offset="0%"></stop>
            <stop stop-color="#723986" offset="100%"></stop>
        </linearGradient>
        <linearGradient x1="91.997%" y1="52.448%" x2="29.654%" y2="52.448%" id="linearGradient-4">
            <stop stop-color="#623274" stop-opacity="0" offset="0%"></stop>
            <stop stop-color="#542C65" offset="100%"></stop>
        </linearGradient>
        <linearGradient x1="91.997%" y1="52.448%" x2="29.654%" y2="52.448%" id="linearGradient-5">
            <stop stop-color="#623274" stop-opacity="0" offset="0%"></stop>
            <stop stop-color="#542C65" offset="100%"></stop>
        </linearGradient>
        <linearGradient x1="91.675%" y1="5.599%" x2="56.225%" y2="79.874%" id="linearGradient-6">
            <stop stop-color="#8A519F" offset="0%"></stop>
            <stop stop-color="#8A53A0" offset="100%"></stop>
        </linearGradient>
        <linearGradient x1="63.479%" y1="48.225%" x2="0%" y2="48.225%" id="linearGradient-7">
            <stop stop-color="#8A529F" stop-opacity="0.1" offset="0%"></stop>
            <stop stop-color="#542C65" offset="100%"></stop>
        </linearGradient>
        <linearGradient x1="24.699%" y1="31.401%" x2="80.097%" y2="66.964%" id="linearGradient-8">
            <stop stop-color="#5C2E6D" offset="0%"></stop>
            <stop stop-color="#6D377B" offset="100%"></stop>
        </linearGradient>
        <linearGradient x1="12.346%" y1="34.458%" x2="81.65%" y2="53.652%" id="linearGradient-9">
            <stop stop-color="#612E74" offset="0%"></stop>
            <stop stop-color="#7F4395" offset="100%"></stop>
        </linearGradient>
        <linearGradient x1="100%" y1="0%" x2="100%" y2="69.36%" id="linearGradient-10">
            <stop stop-color="#582C6A" offset="0%"></stop>
            <stop stop-color="#743983" offset="100%"></stop>
        </linearGradient>
        <linearGradient x1="50%" y1="74.788%" x2="19.624%" y2="71.707%" id="linearGradient-11">
            <stop stop-color="#623274" stop-opacity="0" offset="0%"></stop>
            <stop stop-color="#542C65" offset="100%"></stop>
        </linearGradient>
        <linearGradient x1="0%" y1="0%" x2="0%" y2="100%" id="linearGradient-12">
            <stop stop-color="#723A85" offset="0%"></stop>
            <stop stop-color="#8C519C" offset="100%"></stop>
        </linearGradient>
        <linearGradient x1="-4.4408921e-14%" y1="35.927%" x2="62.291%" y2="46.718%" id="linearGradient-13">
            <stop stop-color="#66397A" offset="0%"></stop>
            <stop stop-color="#9F69AB" offset="100%"></stop>
        </linearGradient>
        <linearGradient x1="72%" y1="48.225%" x2="0%" y2="48.225%" id="linearGradient-14">
            <stop stop-color="#623274" stop-opacity="0" offset="0%"></stop>
            <stop stop-color="#542C65" offset="100%"></stop>
        </linearGradient>
        <linearGradient x1="50%" y1="21.039%" x2="50%" y2="78.192%" id="linearGradient-15">
            <stop stop-color="#5D306E" offset="0%"></stop>
            <stop stop-color="#9F6AAA" offset="100%"></stop>
        </linearGradient>
    </defs>
		<g>
				<g>
						<mask id="mask-2" fill="white">
								<use xlink:href="#path-1"></use>
						</mask>
						<use fill="#5B2E6E" xlink:href="#path-1"></use>
						<path d="M24.7827421,81.8984655 C29.9166378,76.2779888 46.4384659,58.1931276 49.5624267,54.7728518 C43.2849471,47.9038317 10.2423103,11.7387866 0,0.527317666 C0.624792108,2.58009321 22.2703235,73.6497445 24.7827421,81.8984655 Z" fill="url(#linearGradient-3)" mask="url(#mask-2)"></path>
						<polygon fill="url(#linearGradient-4)" mask="url(#mask-2)" transform="translate(15.112586, 42.892028) rotate(-17.000000) translate(-15.112586, -42.892028) " points="13.046591 -2.04003876 24.6485424 22.0823392 25.0990447 87.8241441 5.12612651 87.8241441"></polygon>
						<polygon fill="url(#linearGradient-5)" mask="url(#mask-2)" transform="translate(34.767674, 67.843448) rotate(-125.000000) translate(-34.767674, -67.843448) " points="22.9318707 47.1307926 46.6034773 54.9098298 44.4264084 86.4597512 28.6803964 88.5561042"></polygon>
						<polygon fill="url(#linearGradient-6)" mask="url(#mask-2)" points="147.947542 54.5254884 197.509968 108.529023 197.509968 0.527317666"></polygon>
						<polygon fill="url(#linearGradient-7)" mask="url(#mask-2)" transform="translate(177.893705, 75.925687) rotate(-46.000000) translate(-177.893705, -75.925687) " points="172.477187 39.5455626 187.71998 39.1667476 183.49899 97.7825417 168.06743 112.684627"></polygon>
						<polygon fill="url(#linearGradient-8)" mask="url(#mask-2)" points="148.68728 163.269614 197.509968 108.529023 130.193836 34.5552525"></polygon>
						<polygon fill="url(#linearGradient-9)" mask="url(#mask-2)" points="99.1248526 109.268761 148.68728 163.269614 130.193836 34.5552525"></polygon>
						<polygon fill="url(#linearGradient-10)" mask="url(#mask-2)" points="49.5624267 163.269614 99.1248526 109.268761 99.1248526 0.527317666"></polygon>
						<polygon fill="url(#linearGradient-11)" mask="url(#mask-2)" points="49.5624267 163.269614 68.9437018 142.152701 99.1248526 32.294596 99.1248526 0.527317666"></polygon>
						<polygon fill="url(#linearGradient-12)" mask="url(#mask-2)" points="99.1248526 109.268761 130.193836 34.5552525 99.1248526 0.527317666"></polygon>
						<path d="M24.4113444,81.7934244 C26.107999,87.3518133 49.5658177,163.269614 49.5658177,163.269614 L99.1248526,0.527317666 L24.4113444,81.7934244 Z" fill="url(#linearGradient-13)" mask="url(#mask-2)"></path>
						<polygon fill="url(#linearGradient-14)" mask="url(#mask-2)" transform="translate(43.428120, 114.487396) rotate(-17.000000) translate(-43.428120, -114.487396) " points="32.2589576 79.1168799 54.5972816 66.0442458 54.4063572 151.552561 35.0321558 162.930547"></polygon>
						<polygon fill="url(#linearGradient-15)" mask="url(#mask-2)" points="0 108.883717 49.5624267 163.269614 0.00203333831 0.527317666"></polygon>
				</g>
				<path d="M511.158759,101.871384 L496.364003,84.1176787 L511.158759,66.3639738 L511.158759,66.3639738 C511.447899,65.4237491 511.813711,64.4910495 511.898496,63.4050231 C511.813711,60.9754886 509.765151,58.9665968 507.460068,58.9665968 C505.88752,58.9665968 504.643752,59.612312 503.761379,60.446072 L503.761379,60.446072 L491.185837,76.7203017 L477.87056,60.446072 L477.87056,60.446072 C476.988187,59.612312 475.744418,58.9665968 474.171871,58.9665968 C471.866788,58.9665968 469.818228,60.9754886 469.733447,63.4050231 C469.818228,64.4910495 470.184042,65.3520032 470.473183,66.3639738 L470.473183,66.3639738 L485.267936,84.1176787 L470.473183,101.871384 C470.330368,102.444757 470.037716,102.94698 469.733447,103.350859 C469.232926,105.960318 470.696181,108.471432 473.432135,109.268761 C475.01279,109.619371 476.841861,108.830163 477.87056,107.049548 L491.185837,91.5150557 L503.761379,107.049548 C504.790078,108.830163 506.692311,109.619371 508.199807,109.268761 C510.935758,108.471432 512.399016,106.032064 511.898496,103.350859 C511.594226,102.94698 511.301573,102.373011 511.158759,101.871384 Z M462.336067,63.4050231 C462.336067,60.9786833 460.331616,58.9665968 457.897642,58.9665968 C455.463665,58.9665968 453.530803,60.9068229 453.459217,63.4050231 L453.459217,63.4050231 L453.459217,63.4050231 C453.459217,63.3500712 453.459217,63.4219312 453.459217,63.4050231 C453.459217,63.4219312 453.459217,63.4937915 453.459217,63.4050231 L453.459217,104.830335 C453.459217,104.669706 453.459217,104.741566 453.459217,104.830335 C453.459217,107.256674 455.463665,109.268761 457.897642,109.268761 C460.331616,109.268761 462.336067,107.256674 462.336067,104.830335 C462.336067,104.669706 462.336067,104.597846 462.336067,104.830335 L462.336067,63.4050231 C462.26448,63.5656516 462.336067,63.5656516 462.336067,63.4050231 Z M389.841774,84.1176787 L389.841774,84.1176787 C389.841774,70.1767934 378.567148,58.9665968 364.690692,58.9665968 C350.814231,58.9665968 339.539608,70.2486535 339.539608,84.1176787 C339.539608,97.4836829 350.019225,108.334577 363.211214,109.268761 C363.53432,109.125041 363.823413,109.268761 363.950954,109.268761 C366.569796,109.268761 368.593445,107.256674 368.38938,104.830335 C368.593445,102.370178 366.714341,100.429952 364.690692,100.391909 L364.690692,100.391909 C364.329326,100.286232 364.25705,100.286232 363.950954,100.391909 C364.184778,100.286232 364.184778,100.286232 363.950954,100.391909 C364.112505,100.286232 364.112505,100.286232 363.950954,100.391909 C357.102001,99.9987909 351.320144,95.3997357 349.156199,89.2958427 L384.663609,89.2958427 C385.144015,89.0760349 385.216287,89.1478952 385.403346,89.2958427 C387.745849,89.1478952 389.769498,87.1358088 389.841774,84.8574166 C389.841774,84.4769798 389.769498,84.2613994 389.841774,84.1176787 L389.841774,84.1176787 Z M349.156199,80.4189904 C350.988499,73.2119549 357.364901,67.8434491 365.430428,67.8434491 C372.756218,67.8434491 379.205912,73.2119549 380.964921,80.4189904 L349.156199,80.4189904 Z M335.101184,61.9255476 C334.302359,59.9118248 331.833271,58.4751782 329.183281,58.9665968 C327.911781,59.5526631 326.895098,60.7019803 326.224331,61.9255476 L326.224331,61.9255476 L317.347477,95.2137445 L302.552723,76.7203017 L302.552723,76.7203017 L302.552723,76.7203017 L302.552723,76.7203017 C301.913748,75.7867682 300.824444,75.2839418 299.593772,75.2408261 C298.355358,75.2839418 297.266055,75.7867682 296.634822,76.7203017 L296.634822,76.7203017 L281.840067,95.2137445 L272.963214,61.9255476 L272.963214,61.9255476 C272.357323,60.7019803 271.268021,59.5526631 270.004264,58.9665968 C267.34653,58.4751782 264.877442,59.9118248 264.086362,61.9255476 C264.006,63.0006146 264.07862,63.6471056 264.086362,64.1447606 L264.086362,64.1447606 L275.182428,106.30981 L275.182428,106.30981 C275.843094,107.39299 276.932396,108.685972 278.881116,109.268761 C280.418167,109.619792 282.233671,108.829637 283.319543,107.049548 L299.593772,87.0766295 L315.868002,107.049548 C317.091371,108.829637 318.979496,109.619792 321.046165,109.268761 C322.392644,108.685972 323.48195,107.464823 324.005116,106.30981 L324.005116,106.30981 L335.101184,64.1447606 L335.101184,64.1447606 C335.101184,63.7189377 335.173802,63.0006146 335.101184,61.9255476 Z M420.910755,58.9665968 C414.622984,58.7855076 409.057947,61.1620376 404.636526,64.8844983 L404.636526,37.5142032 C404.649281,37.6127883 404.721554,37.5407722 404.636526,37.5142032 C404.721554,35.0922263 402.697905,33.0757769 400.198101,33.0757769 C397.783325,33.0757769 395.831949,35.0202102 395.759676,37.5142032 L395.759676,37.5142032 L395.759676,37.5142032 C395.759676,37.5407722 395.759676,37.6127883 395.759676,37.5142032 C395.759676,37.6127883 395.759676,37.6848044 395.759676,37.5142032 L395.759676,83.3779411 L395.759676,83.3779411 C395.831949,83.703062 395.759676,83.8470941 395.759676,84.1176787 C395.759676,97.9622406 407.034298,109.268761 420.910755,109.268761 C434.787215,109.268761 446.061838,97.9622406 446.061838,84.1176787 C445.989566,70.0200119 434.714943,58.7855076 420.910755,58.9665968 Z M420.910755,100.391909 C411.941848,100.391909 404.636526,93.1189121 404.636526,84.1176787 C404.636526,75.1164457 411.941848,67.8434491 420.910755,67.8434491 C429.879666,67.8434491 437.184984,75.1164457 437.184984,84.1176787 C437.184984,93.1189121 429.879666,100.391909 420.910755,100.391909 Z M457.897642,41.2128916 C455.463665,41.2128916 453.459217,43.2013067 453.459217,45.6513178 C453.459217,48.1013291 455.463665,50.0897442 457.897642,50.0897442 C460.331616,50.0897442 462.336067,48.1013291 462.336067,45.6513178 C462.336067,43.2013067 460.331616,41.2128916 457.897642,41.2128916 Z" fill="#000000"></path>
		</g>
</svg>

<svg width="512" height="165" xmlns="http://www.w3.org/2000/svg" xmlns:xlink="http://www.w3.org/1999/xlink" preserveAspectRatio="xMidYMid">
	<defs>
		<linearGradient x1="12.932%" y1="9.052%" x2="71.216%" y2="81.625%" id="b">
			<stop stop-color="#67337A" offset="0%"/>
			<stop stop-color="#723986" offset="100%"/>
		</linearGradient>
		<linearGradient x1="91.997%" y1="52.448%" x2="29.654%" y2="52.448%" id="d">
			<stop stop-color="#623274" stop-opacity="0" offset="0%"/>
			<stop stop-color="#542C65" offset="100%"/>
		</linearGradient>
		<linearGradient x1="91.997%" y1="52.448%" x2="29.654%" y2="52.448%" id="e">
			<stop stop-color="#623274" stop-opacity="0" offset="0%"/>
			<stop stop-color="#542C65" offset="100%"/>
		</linearGradient>
		<linearGradient x1="91.675%" y1="5.599%" x2="56.225%" y2="79.874%" id="f">
			<stop stop-color="#8A519F" offset="0%"/>
			<stop stop-color="#8A53A0" offset="100%"/>
		</linearGradient>
		<linearGradient x1="63.479%" y1="48.225%" x2="0%" y2="48.225%" id="g">
			<stop stop-color="#8A529F" stop-opacity=".1" offset="0%"/>
			<stop stop-color="#542C65" offset="100%"/>
		</linearGradient>
		<linearGradient x1="24.699%" y1="31.401%" x2="80.097%" y2="66.964%" id="h">
			<stop stop-color="#5C2E6D" offset="0%"/>
			<stop stop-color="#6D377B" offset="100%"/>
		</linearGradient>
		<linearGradient x1="12.346%" y1="34.458%" x2="81.65%" y2="53.652%" id="i">
			<stop stop-color="#612E74" offset="0%"/>
			<stop stop-color="#7F4395" offset="100%"/>
		</linearGradient>
		<linearGradient x1="100%" y1="0%" x2="100%" y2="69.36%" id="j">
			<stop stop-color="#582C6A" offset="0%"/>
			<stop stop-color="#743983" offset="100%"/>
		</linearGradient>
		<linearGradient x1="50%" y1="74.788%" x2="19.624%" y2="71.707%" id="k">
			<stop stop-color="#623274" stop-opacity="0" offset="0%"/>
			<stop stop-color="#542C65" offset="100%"/>
		</linearGradient>
		<linearGradient x1="0%" y1="0%" x2="0%" y2="100%" id="l">
			<stop stop-color="#723A85" offset="0%"/>
			<stop stop-color="#8C519C" offset="100%"/>
		</linearGradient>
		<linearGradient x1="0%" y1="35.927%" x2="62.291%" y2="46.718%" id="m">
			<stop stop-color="#66397A" offset="0%"/>
			<stop stop-color="#9F69AB" offset="100%"/>
		</linearGradient>
		<linearGradient x1="72%" y1="48.225%" x2="0%" y2="48.225%" id="n">
			<stop stop-color="#623274" stop-opacity="0" offset="0%"/>
			<stop stop-color="#542C65" offset="100%"/>
		</linearGradient>
		<linearGradient x1="50%" y1="21.039%" x2="50%" y2="78.192%" id="o">
			<stop stop-color="#5D306E" offset="0%"/>
			<stop stop-color="#9F6AAA" offset="100%"/>
		</linearGradient>
		<path id="a" d="M0 108.28V.528l49.456 54.07L99.125.528l49.007 53.79L197.51.528V108.53l-48.823 54.74-49.562-54-49.563 54z"/>
	</defs>
	<mask id="c" fill="#fff">
		<use xlink:href="#a"/>
	</mask>
	<use fill="#5B2E6E" xlink:href="#a"/>
	<path d="m24.783 81.898 24.78-27.125L0 .527l24.783 81.371Z" fill="url(#b)" mask="url(#c)"/>
	<path fill="url(#d)" mask="url(#c)" transform="rotate(-17 15.113 42.892)" d="m13.047-2.04 11.602 24.122.45 65.742H5.126z"/>
	<path fill="url(#e)" mask="url(#c)" transform="rotate(-125 34.768 67.843)" d="m22.932 47.13 23.671 7.78-2.177 31.55-15.746 2.096z"/>
	<path fill="url(#f)" mask="url(#c)" d="m147.948 54.525 49.562 54.004V.527z"/>
	<path fill="url(#g)" mask="url(#c)" transform="rotate(-46 177.894 75.926)" d="m172.477 39.546 15.243-.38-4.221 58.617-15.432 14.902z"/>
	<path fill="url(#h)" mask="url(#c)" d="m148.687 163.27 48.823-54.741-67.316-73.974z"/>
	<path fill="url(#i)" mask="url(#c)" d="m99.125 109.269 49.562 54-18.493-128.714z"/>
	<path fill="url(#j)" mask="url(#c)" d="m49.562 163.27 49.563-54.001V.527z"/>
	<path fill="url(#k)" mask="url(#c)" d="m49.562 163.27 19.382-21.117 30.18-109.858V.527z"/>
	<path fill="url(#l)" mask="url(#c)" d="m99.125 109.269 31.069-74.714L99.124.527z"/>
	<path d="M24.411 81.793c1.697 5.559 25.155 81.477 25.155 81.477L99.125.527 24.41 81.793Z" fill="url(#m)" mask="url(#c)"/>
	<path fill="url(#n)" mask="url(#c)" transform="rotate(-17 43.428 114.487)" d="m32.259 79.117 22.338-13.073-.19 85.509-19.375 11.378z"/>
	<path fill="url(#o)" mask="url(#c)" d="m0 108.884 49.562 54.386L.002.527z"/>
	<path d="m511.159 101.871-14.795-17.753 14.795-17.754c.289-.94.655-1.873.74-2.959-.085-2.43-2.134-4.438-4.439-4.438a5.308 5.308 0 0 0-3.699 1.48L491.186 76.72 477.87 60.446a5.308 5.308 0 0 0-3.7-1.48c-2.304 0-4.353 2.01-4.438 4.439.085 1.086.451 1.947.74 2.959l14.795 17.754-14.795 17.753c-.143.574-.435 1.076-.74 1.48-.5 2.61.963 5.12 3.7 5.918 1.58.35 3.409-.439 4.438-2.22l13.315-15.534 12.575 15.535c1.03 1.78 2.931 2.57 4.439 2.219 2.736-.798 4.199-3.237 3.698-5.918a4.883 4.883 0 0 1-.74-1.48Zm-48.823-38.466c0-2.426-2.004-4.438-4.438-4.438-2.434 0-4.367 1.94-4.439 4.438 0-.055 0 .017 0 0 0 .017 0 .089 0 0v41.425c0-.16 0-.088 0 0 0 2.427 2.005 4.439 4.439 4.439s4.438-2.012 4.438-4.439c0-.16 0-.232 0 0V63.405c-.072.16 0 .16 0 0Zm-72.494 20.713c0-13.941-11.275-25.151-25.151-25.151-13.877 0-25.151 11.282-25.151 25.15 0 13.367 10.48 24.218 23.671 25.152.323-.144.612 0 .74 0 2.619 0 4.642-2.012 4.438-4.439.204-2.46-1.675-4.4-3.698-4.438-.362-.106-.434-.106-.74 0 .234-.106.234-.106 0 0 .162-.106.162-.106 0 0-6.849-.393-12.63-4.992-14.795-11.096h35.508c.48-.22.552-.148.74 0 2.342-.148 4.365-2.16 4.438-4.439 0-.38-.073-.596 0-.74Zm-40.686-3.699c1.832-7.207 8.209-12.576 16.274-12.576 7.326 0 13.776 5.369 15.535 12.576h-31.809Zm-14.055-18.493c-.799-2.014-3.268-3.45-5.918-2.96-1.271.587-2.288 1.736-2.959 2.96l-8.877 33.288-14.794-18.494c-.64-.933-1.729-1.436-2.96-1.48-1.238.044-2.327.547-2.958 1.48L281.84 95.214l-8.877-33.288c-.606-1.224-1.695-2.373-2.959-2.96-2.657-.49-5.127.946-5.918 2.96-.08 1.075-.007 1.721 0 2.219l11.096 42.165c.661 1.083 1.75 2.376 3.7 2.959 1.536.35 3.352-.44 4.438-2.22l16.274-19.972 16.274 19.973c1.223 1.78 3.111 2.57 5.178 2.219 1.347-.583 2.436-1.804 2.96-2.96L335.1 64.146c0-.426.073-1.144 0-2.22Zm85.81-2.96c-6.288-.18-11.853 2.196-16.274 5.918v-27.37c.012.099.085.027 0 0 .085-2.422-1.94-4.438-4.439-4.438-2.415 0-4.366 1.944-4.438 4.438 0 .027 0 .099 0 0 0 .099 0 .17 0 0v45.864c.072.325 0 .47 0 .74 0 13.844 11.274 25.15 25.15 25.15 13.877 0 25.152-11.306 25.152-25.15-.072-14.098-11.347-25.332-25.151-25.151Zm0 41.426c-8.97 0-16.274-7.273-16.274-16.274 0-9.002 7.305-16.275 16.274-16.275 8.969 0 16.274 7.273 16.274 16.275 0 9-7.305 16.274-16.274 16.274Zm36.987-59.18a4.45 4.45 0 0 0-4.439 4.44 4.45 4.45 0 0 0 4.439 4.438 4.45 4.45 0 0 0 4.438-4.439 4.45 4.45 0 0 0-4.438-4.438Z"/>
</svg>
